X:569
T:Miss Thornton's Reel
C:Joe Buchanan's Scottish Tome - Page 153.1
I:153 1
Z:Carl Allison
R:Reel
L:1/8
M:4/4
K:G
D2 |S G2 (Bd) gdBd | cBAB cedc | BGAF GBdg | ecAF GFED |
G2 (Bd) gdBd | cBAB cedc | BGAF GBdg | ecAF G4 |]
b2 ag b2 ag | egdg egdg | b2 ag b2 ag | egfa gfga |
bgaa bgag | egdg egdg | bgaf gfed | egfa gedB S|]

